src/images/icons/whatsapp.svg

<svg width="32" height="32" viewBox="0 0 32 32" fill="currentColor" xmlns="http://www.w3.org/2000/svg">
<path fill-rule="evenodd" clip-rule="evenodd" d="M16.0558 2.66663C8.73724 2.66663 2.78098 8.59421 2.77805 15.8797C2.77705 18.2086 3.38835 20.482 4.55033 22.486L2.66669 29.3333L9.70542 27.4957C11.6449 28.5486 13.8284 29.1035 16.0504 29.1041H16.056C23.3737 29.1041 29.3306 23.1761 29.3334 15.8903C29.3364 8.65554 23.2707 2.66959 16.0558 2.66663ZM16.0558 26.8725H16.0512C13.8815 26.8715 11.8812 26.197 10.0315 25.1034L5.85461 26.1939L6.96945 22.141C5.76602 20.2362 5.01876 18.1587 5.01987 15.8805C5.02217 9.82496 9.97295 4.89838 16.0602 4.89838C22.0558 4.90033 27.0936 9.87963 27.0917 15.8894C27.0891 21.9454 22.1386 26.8725 16.0558 26.8725ZM22.1092 18.6467C21.7775 18.4814 20.1463 17.6829 19.8421 17.5725C19.5382 17.4623 19.3168 17.4075 19.0959 17.7379C18.8746 18.0683 18.2389 18.8121 18.0452 19.0323C17.8516 19.2527 17.6583 19.2803 17.3265 19.115C16.9947 18.9498 15.9257 18.601 14.6585 17.4762C13.6723 16.6007 13.0065 15.5195 12.8129 15.1891C12.6196 14.8583 12.8112 14.6969 12.9584 14.5152C13.3175 14.0714 13.6772 13.606 13.7877 13.3858C13.8984 13.1654 13.843 12.9726 13.7599 12.8074C13.6772 12.6422 13.0137 11.017 12.7373 10.3557C12.3954 9.53927 11.0276 9.5845 10.4701 10.1907C10.1661 10.5213 9.30914 11.3199 9.30914 12.9451C9.30914 14.5703 10.4979 16.1402 10.6638 16.3606C10.8295 16.581 13.0032 19.9159 16.3312 21.346C17.6047 21.8938 18.9061 22.3814 20.3121 22.1724C20.9496 22.0775 22.2748 21.3736 22.5515 20.6024C22.8918 19.653 22.9923 19.0871 22.1092 18.6467Z"/>
</svg>

<svg xmlns="http://www.w3.org/2000/svg" width="32" height="32" fill="currentColor" viewBox="0 0 32 32">
  <path fill-rule="evenodd" d="M25.448 6.542a13.224 13.224 0 0 0-9.392-3.875C8.737 2.667 2.78 8.594 2.778 15.88a13.142 13.142 0 0 0 1.772 6.606l-1.883 6.847 7.038-1.837a13.313 13.313 0 0 0 6.345 1.608h.006c7.318 0 13.275-5.928 13.277-13.214a13.101 13.101 0 0 0-3.885-9.348Zm-9.392 20.33h-.005c-1.98 0-3.922-.53-5.617-1.53l-.402-.239-4.177 1.09 1.114-4.052-.262-.415A10.917 10.917 0 0 1 5.02 15.88C5.022 9.825 9.973 4.897 16.06 4.897a10.986 10.986 0 0 1 7.802 3.221 10.892 10.892 0 0 1 3.23 7.77c-.003 6.056-4.953 10.983-11.036 10.983Zm6.053-8.225c-.332-.166-1.963-.964-2.267-1.074-.304-.11-.525-.166-.746.165-.221.33-.857 1.074-1.05 1.294-.194.22-.388.248-.72.083-.331-.165-1.4-.514-2.668-1.639-.986-.875-1.651-1.956-1.845-2.287-.193-.33-.002-.492.145-.674.36-.444.72-.909.83-1.13.11-.22.055-.412-.028-.578-.083-.165-.746-1.79-1.023-2.451-.27-.644-.543-.557-.746-.567-.194-.01-.415-.012-.636-.012-.221 0-.58.083-.885.414-.304.33-1.16 1.129-1.16 2.754s1.188 3.195 1.354 3.416c.165.22 2.34 3.555 5.667 4.985.792.34 1.41.543 1.892.696.794.25 1.517.215 2.09.13.637-.095 1.962-.798 2.239-1.57.276-.77.276-1.432.193-1.57-.083-.137-.304-.22-.636-.385Z" clip-rule="evenodd"/>
</svg>
